X:1
T:Title
%%score { 1 | 2 }
L:1/8
Q:1/4=90
M:2/4
K:D
V:1 treble nm="Grand Piano"
V:2 bass 
V:1
 [DF][FA] [FA]2 | GB B2 | [FA][Fd] [FA][DF] | [FA][EG] [CE]2 | FA AA | Bd d2 | [Fd]B AF | %7
w: J.~M.~Stillman * *|||||||
 [A,DF][K:bass][G,CE] [F,D]2 | [A,CE][CEA] [CEA][B,E^G] | [DEB][CEA] [CEA]2 | Ac cB | dc c2 | %12
w: |||||
 [Fd][FA] [Fd]2 | [Gd][GB] [Ge]2 | dc Bc | [Ge][Fd] [Fd]2 | [DF][DF] [A,EG][K:bass][G,CE] | %17
w: |||||
 [F,D]4 |] %18
w: |
V:2
 [D,A,][D,D] [D,D]2 | [G,B,D][G,DG] [G,DG]2 | [D,D][D,A,] [D,A,][D,A,] | [A,,A,][A,,A,] [A,,A,]2 | %4
 [D,A,D][D,F,D] [D,F,D][D,F,D] | [G,D][G,B,G] [G,B,G]2 | [D,A,][D,G,D] [D,F,D][D,A,D] | %7
 A,,A,, D,2 | A,,A,, E,E, | A,,A,, A,,2 | [A,CE][A,E] [E,A,E][E,^G,E] | [A,B,E][A,E] [A,E]2 | %12
 [D,A,][D,A,] [D,A,]2 | [G,B,][G,B,] [E,B,]2 | [A,G][A,G] [A,G][A,G] | [D,A,][D,A,] [D,A,]2 | %16
 A,A, A,,A,, | D,4 |] %18

